; G-Code generated by Simplify3D(R) Version 3.0.2
; mei 25, 2016 at 9:37:52 
; Settings Summary
;   processName,Process1
;   applyToModels,cube-interface
;   profileName,Leapfrog Creatr Dual (modified)
;   profileVersion,2015-05-01 08:00:00
;   baseProfile,
;   printMaterial,PLA
;   printQuality,Medium
;   printExtruders,Right Extruder Only
;   extruderName,Right Extruder,Left Extruder
;   extruderToolheadNumber,0,1
;   extruderDiameter,0.35,0.35
;   extruderAutoWidth,0,0
;   extruderWidth,0.4,0.4
;   extrusionMultiplier,0.9,0.9
;   extruderUseRetract,1,1
;   extruderRetractionDistance,0.5,0.5
;   extruderExtraRestartDistance,0,0
;   extruderRetractionZLift,0,0
;   extruderRetractionSpeed,1800,1800
;   extruderUseCoasting,0,0
;   extruderCoastingDistance,0.2,0.2
;   extruderUseWipe,0,0
;   extruderWipeDistance,5,5
;   primaryExtruder,0
;   layerHeight,0.2
;   topSolidLayers,3
;   bottomSolidLayers,3
;   perimeterOutlines,2
;   printPerimetersInsideOut,1
;   startPointOption,2
;   startPointOriginX,0
;   startPointOriginY,0
;   startPointOriginZ,300
;   sequentialIslands,0
;   spiralVaseMode,0
;   firstLayerHeightPercentage,90
;   firstLayerWidthPercentage,100
;   firstLayerUnderspeed,0.5
;   useRaft,0
;   raftExtruder,0
;   raftLayers,3
;   raftOffset,3
;   raftSeparationDistance,0.14
;   raftInfill,85
;   disableRaftBaseLayers,0
;   useSkirt,1
;   skirtExtruder,0
;   skirtLayers,1
;   skirtOutlines,2
;   skirtOffset,4
;   usePrimePillar,0
;   primePillarExtruder,999
;   primePillarWidth,12
;   primePillarLocation,7
;   primePillarSpeedMultiplier,1
;   useOozeShield,0
;   oozeShieldExtruder,999
;   oozeShieldOffset,2
;   oozeShieldOutlines,1
;   oozeShieldSidewallShape,1
;   oozeShieldSidewallAngle,30
;   oozeShieldSpeedMultiplier,1
;   infillExtruder,0
;   internalInfillPattern,Rectilinear
;   externalInfillPattern,Rectilinear
;   infillPercentage,20
;   outlineOverlapPercentage,15
;   infillExtrusionWidthPercentage,100
;   minInfillLength,5
;   infillLayerInterval,1
;   infillAngles,45,-45
;   overlapInfillAngles,0
;   generateSupport,0
;   supportExtruder,0
;   supportInfillPercentage,30
;   supportExtraInflation,0
;   denseSupportLayers,0
;   denseSupportInfillPercentage,70
;   supportLayerInterval,1
;   supportHorizontalPartOffset,0.3
;   supportUpperSeparationLayers,1
;   supportLowerSeparationLayers,1
;   supportType,0
;   supportGridSpacing,4
;   maxOverhangAngle,45
;   supportAngles,0
;   temperatureName,Right Extruder,Left Extruder,Heated Bed
;   temperatureNumber,0,1,2
;   temperatureSetpointCount,1,1,1
;   temperatureSetpointLayers,1,1,1
;   temperatureSetpointTemperatures,190,0,60
;   temperatureStabilizeAtStartup,1,0,1
;   temperatureHeatedBed,0,0,1
;   temperatureRelayBetweenLayers,0,0,0
;   temperatureRelayBetweenLoops,0,0,0
;   fanLayers,1,2
;   fanSpeeds,0,100
;   blipFanToFullPower,1
;   adjustSpeedForCooling,1
;   minSpeedLayerTime,15
;   minCoolingSpeedSlowdown,20
;   increaseFanForCooling,0
;   minFanLayerTime,45
;   maxCoolingFanSpeed,100
;   increaseFanForBridging,1
;   bridgingFanSpeed,100
;   use5D,1
;   relativeEdistances,0
;   allowEaxisZeroing,0
;   independentExtruderAxes,0
;   includeM10123,0
;   stickySupport,1
;   applyToolheadOffsets,0
;   gcodeXoffset,0
;   gcodeYoffset,0
;   gcodeZoffset,0
;   overrideMachineDefinition,1
;   machineTypeOverride,0
;   strokeXoverride,230
;   strokeYoverride,260
;   strokeZoverride,200
;   originOffsetXoverride,0
;   originOffsetYoverride,0
;   originOffsetZoverride,0
;   homeXdirOverride,-1
;   homeYdirOverride,-1
;   homeZdirOverride,-1
;   flipXoverride,1
;   flipYoverride,-1
;   flipZoverride,1
;   toolheadOffsets,0,0|34,0|0,0|0,0|0,0|0,0
;   overrideFirmwareConfiguration,1
;   firmwareTypeOverride,RepRap (Marlin/Repetier/Sprinter)
;   GPXconfigOverride,r2
;   baudRateOverride,115200
;   overridePrinterModels,1
;   printerModelsOverride
;   startingGcode,G28 F1200 ; home all axes,T0 ; switch to right extruder,G1 Z0.2 ; raise nozzle,G92 E0 ; zero extruder,G1 E3 F225 ; purge nozzle,G1 Y15 Z0.05 F1200 ; slow wipe,G1 Y20 Z0.25 ; lift,G92 E0 ; zero extruder again
;   layerChangeGcode,
;   retractionGcode,
;   toolChangeGcode,
;   endingGcode,M104 S0 T0 ; turn off right extruder,M104 S0 T1 ; turn off left extruder,M140 S0 T0 ; turn off bed,G1 Z200 F1200 ; drop bed,G28 X0 ; home X axis,M84 ; disable motors
;   createX3G,0
;   celebration,0
;   celebrationSong,Random Song
;   createMB5G,0
;   postProcessing,
;   defaultSpeed,3600
;   outlineUnderspeed,0.5
;   solidInfillUnderspeed,0.8
;   supportUnderspeed,0.8
;   rapidXYspeed,4800
;   rapidZspeed,1000
;   minBridgingArea,50
;   bridgingExtraInflation,0
;   bridgingExtrusionMultiplier,1
;   bridgingSpeedMultiplier,1
;   filamentDiameter,1.75
;   filamentPricePerKg,46
;   filamentDensity,1.25
;   useMinPrintHeight,0
;   minPrintHeight,0
;   useMaxPrintHeight,0
;   maxPrintHeight,0
;   useDiaphragm,0
;   diaphragmLayerInterval,20
;   robustSlicing,1
;   mergeAllIntoSolid,0
;   onlyRetractWhenCrossingOutline,1
;   retractBetweenLayers,1
;   useRetractionMinTravel,0
;   retractionMinTravel,3
;   retractWhileWiping,0
;   onlyWipeOutlines,1
;   avoidCrossingOutline,0
;   maxMovementDetourFactor,3
;   toolChangeRetractionDistance,12
;   toolChangeExtraRestartDistance,-0.5
;   toolChangeRetractionSpeed,600
;   allowThinWallGapFill,1
;   thinWallAllowedOverlapPercentage,10
;   horizontalSizeCompensation,0
G90
M82
M106 S0
M140 S60
M190 S60
M104 S190 T0
M109 S190 T0
M104 S0 T1
G28 F1200 ; home all axes
T0 ; switch to right extruder
G1 Z0.2 ; raise nozzle
G92 E0 ; zero extruder
G1 E3 F225 ; purge nozzle
G1 Y15 Z0.05 F1200 ; slow wipe
G1 Y20 Z0.25 ; lift
G92 E0 ; zero extruder again
G1 E-0.5000 F1800
G1 Z0.180 F1000
; layer 1, Z = 0.18
T0
; tool H0.200 W0.400
; skirt
G1 X95.990 Y42.362 F4800
G1 E0.0000 F540
G1 X98.502 Y39.850 E0.1063 F1800
G1 X98.723 Y39.759 E0.1135
G1 X115.275 Y39.759 E0.6090
G1 X115.496 Y39.851 E0.6161
G1 X118.008 Y42.363 E0.7225
G1 X118.099 Y42.583 E0.7296
G1 X118.099 Y42.818 E0.7366
G1 X133.158 Y55.121 E1.3187
G1 X133.241 Y55.226 E1.3227
G1 X134.070 Y56.974 E1.3806
G1 X134.099 Y57.104 E1.3846
G1 X134.100 Y202.896 E5.7488
G1 X134.071 Y203.026 E5.7528
G1 X133.242 Y204.774 E5.8107
G1 X133.159 Y204.879 E5.8147
G1 X118.099 Y217.182 E6.3968
G1 X118.099 Y217.417 E6.4038
G1 X118.008 Y217.638 E6.4110
G1 X115.496 Y220.149 E6.5173
G1 X115.275 Y220.241 E6.5245
G1 X98.723 Y220.241 E7.0199
G1 X98.502 Y220.150 E7.0271
G1 X95.990 Y217.638 E7.1334
G1 X95.899 Y217.417 E7.1406
G1 X95.899 Y42.583 E12.3741
G1 X95.990 Y42.362 E12.3812
G1 X96.329 Y42.589 F4800
G1 X98.729 Y40.190 E12.4828 F1800
G1 X98.802 Y40.159 E12.4852
G1 X115.196 Y40.159 E12.9759
G1 X115.269 Y40.190 E12.9783
G1 X117.669 Y42.589 E13.0799
G1 X117.699 Y42.663 E13.0822
G1 X117.699 Y43.008 E13.0926
G1 X132.871 Y55.402 E13.6790
G1 X132.898 Y55.437 E13.6803
G1 X133.689 Y57.105 E13.7356
G1 X133.699 Y57.148 E13.7369
G1 X133.700 Y202.851 E18.0984
G1 X133.690 Y202.895 E18.0997
G1 X132.899 Y204.562 E18.1550
G1 X132.872 Y204.597 E18.1563
G1 X117.699 Y216.992 E18.7428
G1 X117.699 Y217.338 E18.7531
G1 X117.668 Y217.411 E18.7555
G1 X115.269 Y219.810 E18.8571
G1 X115.196 Y219.841 E18.8595
G1 X98.802 Y219.841 E19.3502
G1 X98.729 Y219.810 E19.3526
G1 X96.329 Y217.411 E19.4541
G1 X96.299 Y217.338 E19.4565
G1 X96.299 Y42.662 E24.6853
G1 X96.329 Y42.589 E24.6877
G1 E24.1877 F1800
; inner perimeter
G1 X101.099 Y44.959 F4800
G1 E24.6877 F1800
G1 X112.899 Y44.959 E25.0409 F1350
G1 X112.899 Y45.285 E25.0506
G1 X128.899 Y58.356 E25.6691
G1 X128.900 Y201.644 E29.9583
G1 X112.899 Y214.715 E30.5768
G1 X112.899 Y215.041 E30.5865
G1 X101.099 Y215.041 E30.9397
G1 X101.100 Y201.931 E31.3322
G1 X101.099 Y44.959 E36.0310
; outer perimeter
G1 X100.699 Y44.559 F4800
G1 X113.299 Y44.559 E36.4081 F900
G1 X113.299 Y45.095 E36.4242
G1 X129.299 Y58.166 E37.0426
G1 X129.300 Y201.833 E41.3432
G1 X113.299 Y214.905 E41.9617
G1 X113.299 Y215.441 E41.9777
G1 X100.699 Y215.441 E42.3549
G1 X100.700 Y201.931 E42.7593
G1 X100.699 Y44.559 E47.4701
; inner perimeter
G1 X105.086 Y49.587 F4800
G1 X104.656 Y50.147 E47.4912 F1350
G1 X104.386 Y50.800 E47.5124
G1 X104.294 Y51.500 E47.5335
G1 X104.386 Y52.200 E47.5546
G1 X104.656 Y52.853 E47.5758
G1 X105.086 Y53.413 E47.5969
G1 X105.646 Y53.843 E47.6181
G1 X106.299 Y54.113 E47.6392
G1 X106.999 Y54.205 E47.6603
G1 X107.699 Y54.113 E47.6815
G1 X108.352 Y53.843 E47.7026
G1 X108.912 Y53.413 E47.7237
G1 X109.342 Y52.853 E47.7449
G1 X109.612 Y52.200 E47.7660
G1 X109.704 Y51.500 E47.7872
G1 X109.612 Y50.800 E47.8083
G1 X109.342 Y50.147 E47.8294
G1 X108.912 Y49.587 E47.8506
G1 X108.352 Y49.157 E47.8717
G1 X107.699 Y48.887 E47.8929
G1 X106.999 Y48.795 E47.9140
G1 X106.299 Y48.887 E47.9351
G1 X105.646 Y49.157 E47.9563
G1 X105.086 Y49.587 E47.9774
; outer perimeter
G1 X105.371 Y49.872 F4800
G1 X105.006 Y50.349 E47.9954 F900
G1 X104.776 Y50.904 E48.0134
G1 X104.697 Y51.500 E48.0314
G1 X104.776 Y52.096 E48.0494
G1 X105.006 Y52.651 E48.0674
G1 X105.371 Y53.128 E48.0853
G1 X105.848 Y53.493 E48.1033
G1 X106.403 Y53.723 E48.1213
G1 X106.999 Y53.802 E48.1393
G1 X107.595 Y53.723 E48.1573
G1 X108.150 Y53.493 E48.1753
G1 X108.627 Y53.128 E48.1933
G1 X108.992 Y52.651 E48.2112
G1 X109.222 Y52.096 E48.2292
G1 X109.301 Y51.500 E48.2472
G1 X109.222 Y50.904 E48.2652
G1 X108.992 Y50.349 E48.2832
G1 X108.627 Y49.872 E48.3012
G1 X108.150 Y49.507 E48.3192
G1 X107.595 Y49.277 E48.3372
G1 X106.999 Y49.198 E48.3551
G1 X106.403 Y49.277 E48.3731
G1 X105.848 Y49.507 E48.3911
G1 X105.371 Y49.872 E48.4091
G1 E47.9091 F1800
; inner perimeter
G1 X116.396 Y78.592 F4800
G1 E48.4091 F1800
G1 X115.940 Y78.942 E48.4263 F1350
G1 X115.589 Y79.399 E48.4436
G1 X115.369 Y79.931 E48.4608
G1 X115.294 Y80.501 E48.4780
G1 X115.369 Y81.072 E48.4953
G1 X115.589 Y81.604 E48.5125
G1 X115.940 Y82.061 E48.5297
G1 X116.396 Y82.411 E48.5470
G1 X116.928 Y82.631 E48.5642
G1 X117.499 Y82.706 E48.5814
G1 X118.070 Y82.631 E48.5986
G1 X118.602 Y82.411 E48.6159
G1 X119.058 Y82.061 E48.6331
G1 X119.409 Y81.604 E48.6503
G1 X119.629 Y81.072 E48.6676
G1 X119.704 Y80.501 E48.6848
G1 X119.629 Y79.931 E48.7020
G1 X119.409 Y79.399 E48.7193
G1 X119.058 Y78.942 E48.7365
G1 X118.602 Y78.592 E48.7537
G1 X118.070 Y78.371 E48.7710
G1 X117.499 Y78.296 E48.7882
G1 X116.928 Y78.371 E48.8054
G1 X116.396 Y78.592 E48.8227
; outer perimeter
G1 X116.598 Y78.941 F4800
G1 X116.225 Y79.227 E48.8367 F900
G1 X115.939 Y79.600 E48.8508
G1 X115.759 Y80.035 E48.8649
G1 X115.697 Y80.501 E48.8790
G1 X115.759 Y80.968 E48.8931
G1 X115.939 Y81.402 E48.9071
G1 X116.225 Y81.775 E48.9212
G1 X116.598 Y82.062 E48.9353
G1 X117.033 Y82.242 E48.9494
G1 X117.499 Y82.303 E48.9635
G1 X117.965 Y82.242 E48.9775
G1 X118.400 Y82.062 E48.9916
G1 X118.773 Y81.775 E49.0057
G1 X119.059 Y81.402 E49.0198
G1 X119.239 Y80.968 E49.0339
G1 X119.301 Y80.501 E49.0479
G1 X119.239 Y80.035 E49.0620
G1 X119.059 Y79.600 E49.0761
G1 X118.773 Y79.227 E49.0902
G1 X118.400 Y78.941 E49.1043
G1 X117.965 Y78.761 E49.1183
G1 X117.499 Y78.700 E49.1324
G1 X117.033 Y78.761 E49.1465
G1 X116.598 Y78.941 E49.1606
; inner perimeter
G1 X107.399 Y84.801 F4800
G1 X107.399 Y102.601 E49.6934 F1350
G1 X122.599 Y102.601 E50.1484
G1 X122.599 Y84.801 E50.6812
G1 X107.399 Y84.801 E51.1362
; outer perimeter
G1 X107.799 Y85.201 F4800
G1 X107.799 Y102.201 E51.6451 F900
G1 X122.199 Y102.201 E52.0762
G1 X122.199 Y85.201 E52.5850
G1 X107.799 Y85.201 E53.0161
G1 E52.5161 F1800
; inner perimeter
G1 X116.928 Y104.771 F4800
G1 E53.0161 F1800
G1 X116.396 Y104.992 E53.0333 F1350
G1 X115.940 Y105.342 E53.0506
G1 X115.589 Y105.799 E53.0678
G1 X115.369 Y106.331 E53.0850
G1 X115.294 Y106.901 E53.1022
G1 X115.369 Y107.472 E53.1195
G1 X115.589 Y108.004 E53.1367
G1 X115.940 Y108.461 E53.1539
G1 X116.396 Y108.811 E53.1712
G1 X116.928 Y109.031 E53.1884
G1 X117.499 Y109.106 E53.2056
G1 X118.070 Y109.031 E53.2229
G1 X118.602 Y108.811 E53.2401
G1 X119.058 Y108.461 E53.2573
G1 X119.409 Y108.004 E53.2746
G1 X119.629 Y107.472 E53.2918
G1 X119.704 Y106.901 E53.3090
G1 X119.629 Y106.331 E53.3263
G1 X119.409 Y105.799 E53.3435
G1 X119.058 Y105.342 E53.3607
G1 X118.602 Y104.992 E53.3780
G1 X118.070 Y104.771 E53.3952
G1 X117.499 Y104.696 E53.4124
G1 X116.928 Y104.771 E53.4297
; outer perimeter
G1 X117.033 Y105.161 F4800
G1 X116.598 Y105.341 E53.4437 F900
G1 X116.225 Y105.627 E53.4578
G1 X115.939 Y106.000 E53.4719
G1 X115.759 Y106.435 E53.4860
G1 X115.697 Y106.901 E53.5001
G1 X115.759 Y107.368 E53.5141
G1 X115.939 Y107.802 E53.5282
G1 X116.225 Y108.175 E53.5423
G1 X116.598 Y108.462 E53.5564
G1 X117.033 Y108.642 E53.5704
G1 X117.499 Y108.703 E53.5845
G1 X117.965 Y108.642 E53.5986
G1 X118.400 Y108.462 E53.6127
G1 X118.773 Y108.175 E53.6268
G1 X119.059 Y107.802 E53.6408
G1 X119.239 Y107.368 E53.6549
G1 X119.301 Y106.901 E53.6690
G1 X119.239 Y106.435 E53.6831
G1 X119.059 Y106.000 E53.6972
G1 X118.773 Y105.627 E53.7112
G1 X118.400 Y105.341 E53.7253
G1 X117.965 Y105.161 E53.7394
G1 X117.499 Y105.100 E53.7535
G1 X117.033 Y105.161 E53.7676
G1 E53.2676 F1800
; inner perimeter
G1 X114.532 Y118.756 F4800
G1 E53.7676 F1800
G1 X114.096 Y118.936 E53.7817 F1350
G1 X113.723 Y119.223 E53.7958
G1 X113.436 Y119.597 E53.8099
G1 X113.255 Y120.032 E53.8240
G1 X113.194 Y120.500 E53.8381
G1 X113.255 Y120.967 E53.8522
G1 X113.436 Y121.402 E53.8663
G1 X113.723 Y121.776 E53.8804
G1 X114.096 Y122.063 E53.8945
G1 X114.532 Y122.243 E53.9086
G1 X114.999 Y122.305 E53.9227
G1 X115.466 Y122.243 E53.9368
G1 X115.902 Y122.063 E53.9509
G1 X116.275 Y121.776 E53.9650
G1 X116.562 Y121.402 E53.9792
G1 X116.743 Y120.967 E53.9933
G1 X116.804 Y120.500 E54.0074
G1 X116.743 Y120.032 E54.0215
G1 X116.562 Y119.597 E54.0356
G1 X116.275 Y119.223 E54.0497
G1 X115.902 Y118.936 E54.0638
G1 X115.466 Y118.756 E54.0779
G1 X114.999 Y118.695 E54.0920
G1 X114.532 Y118.756 E54.1061
; outer perimeter
G1 X114.636 Y119.146 F4800
G1 X114.298 Y119.286 E54.1171 F900
G1 X114.008 Y119.509 E54.1280
G1 X113.785 Y119.799 E54.1390
G1 X113.645 Y120.137 E54.1499
G1 X113.597 Y120.500 E54.1609
G1 X113.645 Y120.863 E54.1718
G1 X113.785 Y121.201 E54.1828
G1 X114.008 Y121.491 E54.1937
G1 X114.298 Y121.714 E54.2047
G1 X114.636 Y121.854 E54.2156
G1 X114.999 Y121.901 E54.2266
G1 X115.362 Y121.854 E54.2376
G1 X115.700 Y121.714 E54.2485
G1 X115.990 Y121.491 E54.2595
G1 X116.213 Y121.201 E54.2704
G1 X116.353 Y120.863 E54.2814
G1 X116.401 Y120.500 E54.2923
G1 X116.353 Y120.137 E54.3033
G1 X116.213 Y119.799 E54.3142
G1 X115.990 Y119.509 E54.3252
G1 X115.700 Y119.286 E54.3361
G1 X115.362 Y119.146 E54.3471
G1 X114.999 Y119.098 E54.3580
G1 X114.636 Y119.146 E54.3690
G1 E53.8690 F1800
; inner perimeter
G1 X113.627 Y123.543 F4800
G1 E54.3690 F1800
G1 X112.959 Y123.722 E54.3897 F1350
G1 X112.314 Y123.969 E54.4104
G1 X111.699 Y124.283 E54.4310
G1 X111.119 Y124.660 E54.4517
G1 X110.582 Y125.094 E54.4724
G1 X110.094 Y125.583 E54.4931
G1 X109.659 Y126.120 E54.5138
G1 X109.283 Y126.699 E54.5345
G1 X108.969 Y127.315 E54.5551
G1 X108.721 Y127.960 E54.5758
G1 X108.542 Y128.627 E54.5965
G1 X108.434 Y129.310 E54.6172
G1 X108.398 Y130.000 E54.6379
G1 X108.434 Y130.690 E54.6585
G1 X108.543 Y131.372 E54.6792
G1 X108.721 Y132.039 E54.6999
G1 X108.969 Y132.684 E54.7206
G1 X109.283 Y133.300 E54.7413
G1 X109.659 Y133.880 E54.7620
G1 X110.094 Y134.416 E54.7826
G1 X110.582 Y134.905 E54.8033
G1 X111.119 Y135.340 E54.8240
G1 X111.699 Y135.716 E54.8447
G1 X112.314 Y136.030 E54.8654
G1 X112.959 Y136.277 E54.8860
G1 X113.627 Y136.456 E54.9067
G1 X114.309 Y136.564 E54.9274
G1 X114.999 Y136.600 E54.9481
G1 X115.689 Y136.564 E54.9688
G1 X116.371 Y136.456 E54.9895
G1 X117.039 Y136.277 E55.0101
G1 X117.684 Y136.030 E55.0308
G1 X118.300 Y135.716 E55.0515
G1 X118.879 Y135.340 E55.0722
G1 X119.416 Y134.905 E55.0929
G1 X119.905 Y134.416 E55.1136
G1 X120.339 Y133.879 E55.1342
G1 X120.716 Y133.300 E55.1549
G1 X121.029 Y132.684 E55.1756
G1 X121.277 Y132.039 E55.1963
G1 X121.456 Y131.372 E55.2170
G1 X121.564 Y130.690 E55.2376
G1 X121.600 Y130.000 E55.2583
G1 X121.564 Y129.310 E55.2790
G1 X121.456 Y128.627 E55.2997
G1 X121.277 Y127.960 E55.3204
